X:1
T:C Major William Billings, 1794
T:(Based  on Psalm 19)
T:Sublimity Anthem: The subject is both praise and prayer; it may answer for thanksgiving or fast. Transcribed from The Continental Harmony, 1794.
%%score [ 1 2 3 4 ]
L:1/8
Q:1/4=120
M:none
K:C
V:1 treble nm="Treble" snm="Tr."
V:2 treble nm="Counter" snm="C."
V:3 treble-8 nm="Tenor" snm="T."
V:4 bass nm="Bass" snm="B."
V:1
 z4 G4 | c4 c2 d2 | e4 (d2 e2) | (f2 e2) d2 c2 | d4 c2 B2 | c3 d c4 | B4 A2 c2 | B4 (AG) A2 | G8 || %9
w: The|hea- vens de-|clare the *|glo- * ry of|God, and the|fir- ma- ment|sho- weth his|han- di- * *|work.|
[M:2/4] e2 e2 | d2 dd | e2 e2 | (de) (dc) | (Bc) d2 |: e3 f e2 d2 | c3 d c2 d2 | e3 f g2 g2 | %17
w: ||||||||
 e2 g2 f2 (ed) |1 e4 e2 d2 :|2 e4 e4 || z8 | z8 | z8 | z8 | z4 c3 f | e3 d (e2 f2) | g4 f2 e2 | %27
w: |||||||And the|fir- ma- ment *|sho- weth his|
 (d2 c2) B4 | c8 | c4 Bcdc | B2 G2 c4 | c4 B2 c2 | (G2 c2) d2 c2 | B6 z2 |: z8 | z4 z2 d2 | %36
w: han- * di-|work.|||||||Their|
 e4 e2 c2 | B2 c2 (d2 e2) | d4 z4 | z4 c4 | d4 c2 d2 | e2 c2 d4 |1 e6 z2 :|2 e8 ||[M:2/4] z2 e2 | %45
w: sound is gone|in- to all *|lands,|Their|sound is gone|in- to all|lands.|lands.||
 dd d (c/B/) | (A/B/)c d2 | e>f ed | e4 | d>e dc | B4 | G>A BG | c4 | c>B c2 | d>c d2 | cc BG | %56
w: |||||||||||
 c4 || z8 |: z8 | z8 | c2 d2 e2 ef | g4 gefd | e2 c2 d2 B2 | G2 G2 (c2 d2) | e2 e2 d4 | %65
w: ||||Let the words of my|mouth, and the me- di-|ta- tion of my|heart be al- *|ways ac- cep-|
 (d2 e2) f4 | (e2 g2) f4 | (e2 d2) e4 | e4 (A2 B)c | (d2 c2) B2 B2 | c4 G4 | z4 g4 | %72
w: ted * in|thy * sight,|O * Lord,|my strength * *|and * my Re-|dee- mer,|O|
 (f3 e) (d2 c2) | (g3 f) (e3 f) | g3 f e4 | c4 z4 | z8 | z8 | z8 | z4 G4 | c4 c4 | B4 c4 | %82
w: Lord, * my *|strength * and *|my Re- dee-|mer.||||O|Lord, my|strength, O|
 (c2 B2) c4 | e4 c4 | c2 d2 e4 | c4 z4 :: e2 e2 e2 e2 | (de) (dc) B2 G2 | (GA) (BG) c2 c2 | %89
w: Lord, * my|strength and|my Re- dee-|mer.||||
 G2 (AB) c2 c2 | z8 | d4 e4 | e2 e2 f2 (fe) | (dc) (BA) G2 G2 | c2 c2 c2 c2 | G4 c4 | f2 d2 e2 c2 | %97
w: ||A- men,|Hal- le- lu- jah, *|Hal- * le- * lu- jah,|Hal- le- lu- jah,|A- men,|Hal- le- lu- jah,|
 d8 | e8 :|[M:4/4] z4 e4 | f4 d4 | e8 |] %102
w: A-|||||
V:2
 z8 | z8 | z8 | z8 | z8 | z8 | z8 | z8 | z8 ||[M:2/4] G2 G2 | G2 GG | G2 G2 | G2 G2 | G2 G2 |: %14
w: |||||||||One day|tel- leth an-|o- ther,|and one|night doth|
 G3 G G2 G2 | G3 G A2 A2 | G3 A G2 G2 | G2 G2 A2 G2 |1 G4 G2 G2 :|2 G4 G4 || z8 | z8 | z8 | z8 | %24
w: cer- ti- fy, doth|cer- ti- fy, doth|cer- ti- fy. doth|cer- ti- fy a-|\-no- ther, doth|\-no- ther.|||||
 z8 | z8 | z8 | A4 G2 F2 | G8 | E4 GGGG | G2 G2 A4 | G4 G2 A2 | G4 A2 A2 | G6 z2 |: z8 | z8 | %36
w: |||his han- di-|work.||||||||
 z4 z2 E2 | G4 G2 G2 | G6 G2 | G4 A2 A2 | D4 (E2 F2) | G4 G4 |1 G6 z2 :|2 G8 ||[M:2/4] z2 G2 | %45
w: Their|sound is gone|out, Their|sound is gone|out in- *|to all|lands.|lands.|The|
 GG AG | AA G2 | G>G G^F | E4 | G>G G^F | G4 | G>G GG | A4 | E>F G2 | A>A A2 | GA GF | E4 || z8 |: %58
w: sta- tutes of the|Lord are right|and re- joice the|heart,|and re- joice the|heart,|and re- joice the|heart,|and re- joice,|and re- joice,|and re- joice the|heart.||
 z8 | z8 | z8 | z4 G2 F2 | E4 D2 D2 | G4 GGGG | G2 G2 G2 G2 | F2 E2 (D2 C2) | G2 G2 A4 | G2 G2 G4 | %68
w: |||Let the|words of my|mouth, and the me- di-|ta- tion of my|heart be al- *|ways ac- cep-|ted, be al-|
 G2 G2 (A2 G2) | A4 G4 | ^F4 G4 | C4 E4 | A4 G4 | G4 G2 G2 | G4 G2 G2 | A4 G2 G2 | (A2 G2) A4 | %77
w: ways ac- cep- *|ted in|thy sight,|O Lord,|my strength|and my Re-|dee- mer, be|al- ways ac-|cep- * ted|
 G4 (G2 A2) | (G2 F2) (E2 F2) | G4 G4 | A4 G4 | G2 (GF) E4 | E4 A4 | G2 G2 A2 A2 | G2 G2 G4 | %85
w: in thy *|sight, * O *|Lord, my|strength and|my Re- * dee-|mer, O|Lord, my strength and|my Re- dee-|
 G4 z4 :: G2 G2 G2 G2 | G2 G2 G2 G2 | G2 G2 A2 A2 | E2 F2 G2 G2 | A4 G4 | ^F4 G4 | G4 A4 | G4 G4 | %94
w: mer.|Hal- le- lu- jah,|Hal- le- lu- jah,|Hal- le- lu- jah,|Hal- le- lu- jah,|A- men,|A- men,|A- men,|A- men,|
 G2 G2 G2 G2 | E2 E2 E2 E2 | A2 A2 G2 A2 | G8 | G8 :|[M:4/4] z4 G4 | A4 G4 | G8 |] %102
w: Hal- le- lu- jah,|Hal- le- lu- jah,|Hal- le- lu- jah,|A-|men.|A-|men, A-|men.|
V:3
 z4 G4 | c4 c2 B2 | c4 (B2 c2) | (d2 c2) B2 A2 | G4 A2 B2 | c3 B A4 | G4 A2 c2 | B4 (AG) A2 | G8 || %9
w: The|hea- vens de-|clare the *|glo- * ry of|God, and the|fir- ma- ment|sho- weth his|han- di- * *|work.|
[M:2/4] c2 c2 | (Bc) dB | c2 c2 | (Bc) (de) | d2 d2 |: c3 B c2 d2 | e3 d e2 f2 | g3 f e2 d2 | %17
w: ||||||||
 e2 c2 d2 B2 |1 c4 c2 d2 :|2 c4 c4 || z8 | z8 | z8 | z8 | z4 e3 f | g3 a (g2 f2) | e4 d2 c2 | %27
w: |||||||And the|fir- ma- ment *|sho- weth his|
 (f2 e2) d4 | c8 | c4 dcBc | d2 e2 f4 | e4 d2 (cd) | e4 f2 e2 | d6 z2 |: z4 z2 G2 | c4 c2 B2 | %36
w: han- * di-|work.|For there is nei- ther|speech nor lan-|guage where their *|voice is not|heard.|Their|sound is gone|
 c6 c2 | (d2 c2) B2 c2 | d6 d2 | (e3 d) e2 f2 | g6 f2 | e4 d4 |1 c6 z2 :|2 c8 ||[M:2/4] z2 c2 | %45
w: out, their|sound * is gone|out, their|sound * is gone|out in-|to all|lands.~|lands.||
 dB de | fe d2 | c>d cB | c4 | d>c Bc | d4 | d>e de | f4 | g>f e2 | d>e f2 | ec dd | c4 || z8 |: %58
w: |||||||||||||
 z8 | z8 | z4 c3 d | (e3 d) e2 f2 | g4 efgf | e2 d2 c2 B2 | c4 Bcde | d2 c2 B2 A2 | G2 G2 c4 | %67
w: ||Let the|words * of my|mouth, and the me- di-|ta- tion of my|heart, and the me- di-|ta- tion of my|heart, be al-|
 c2 B2 c4 | c4 (d2 e2) | (f2 e2) d4 | c4 B4 | A4 G4 | c4 d2 e2 | c4 c2 G2 | c4 B2 G2 | c4 c2 c2 | %76
w: ways ac- cep-|ted in *|thy * sight,|O Lord,|my strength|and my Re-|dee- mer, be|al- ways ac-|cep- ted, be|
 d2 e2 f2 e2 | d4 d2 d2 | (e2 f2) g2 f2 | e4 (d2 e2) | f4 e4 | d4 c4 | e4 f4 | g4 f4 | e2 d2 c4 | %85
w: al- ways ac- cep-|ted in thy|sight, * O Lord,|my strength *|and my|Re- dee-|mer, my|strength and|my Re- dee-|
 c4 z4 :: c2 G2 c2 c2 | (dc) (Bc) d2 d2 | (dc) (de) f2 f2 | g2 f2 e2 c2 | (de) (dc) B2 G2 | z4 G4 | %92
w: mer.|||||Hal- * le- * lu- jah,|A-|
 (c3 d c3 e | d3 e d3 f | e3 f e3 f | g8) | f2 f2 e2 e2 | d8 | c8 :|[M:4/4] z4 c4 | c4 B4 | c8 |] %102
w: men.~ _ _ _|_ _ _ _|||Hal- le- lu- jah,|A-|||||
V:4
 z8 | z8 | z8 | z8 | z8 | z8 | z8 | z8 | z8 ||[M:2/4] C,2 C,2 | G,2 G,G, | C,2 C,2 | G,2 G,2 | %13
w: |||||||||||||
 G,2 G,2 |: C,3 D, C,2 G,2 | C3 B, A,2 F,2 | E,3 D, C,2 G,2 | C2 E,2 F,2 G,2 |1 C,4 C,2 G,2 :|2 %19
w: ||||||
 C,4 C,4 || z4 C,4 | C,4 C,2 D,2 | (E,2 F,2) G,4 | C4 G,2 E,2 | C,4 C,3 D, | E,3 F, (E,2 D,2) | %26
w: |The|hea- vens de-|clare * the|glo- ry of|God, And the|fir- ma- ment *|
 C,4 D,2 E,2 | F,4 G,4 | C,8 | C,4 G,G,G,G, | G,2 G,2 (F,2 E,D,) | C,4 G,2 F,2 | E,4 D,2 C,2 | %33
w: sho- weth his|han- di-|work.|||||
 G,6 G,2 |: C4 G,2 E,2 | F,6 G,2 | C,4 C,2 C,2 | G,4 G,2 G,2 | G,4 G,4 | (C3 B,) A,4 | %40
w: * Their|sound is gone|out, their|sound is gone|our, is gone|out un-|to * all|
 (G,3 F, E,2) D,2 | E,4 G,4 |1 C,6 G,2 :|2 C,8 ||[M:2/4] z2 C,2 | G,G, F,E, | D,C, G,2 | %47
w: lands,~ _ _ in-|to all|lands. Their|lands.||||
 C,>B,, C,D, | C,4 | G,>G, G,A, | G,4 | G,>G, G,G, | F,4 | E,>D, C,2 | F,>E, D,2 | E,F, G,G,, | %56
w: |||||||||
 C,4 || z4 C,3 D, |: (E,3 D,) E,2 F,2 | G,4 A,G,A,B, | C2 B,2 A,2 A,2 | G,2 G,F, (E,2 D,2) | %62
w: |Let the|words * of my|mouth, and the me- di-|ta- tion of my|heart be * al- *|
 C,2 C,2 G,4 | G,4 E,4 | C,4 G,4 | z8 | E,4 F,4 | G,4 C,4 | C,4 (F,2 E,2) | (D,2 C,2) G,4 | %70
w: ways ac- cep-|ted in|thy sight,||O Lord,|my strength,|O Lord, *|my * strength,|
 A,4 G,4 | F,4 E,4 | F,4 G,2 G,,2 | C,4 C,4 | C,3 D, E,4 | F,2 F,2 E,4 | D,F, E,C, D,2 C,2 | %77
w: O Lord,|my strength|and my Re-|dee- mer.|Let the words|of my mouth|and the me- di- ta- tion|
 G,2 G,2 G,2 F,2 | (E,2 D,2) C,2 D,2 | E,4 G,4 | F,4 C,4 | G,4 A,4 | (A,2 G,2) F,4 | E,4 F,4 | %84
w: of my heart be|al- * ways ac-|cep- ted|in thy|sight, O|Lord, * my|strength and|
 G,2 G,2 C,4 | C,4 C,3 D, :: C,2 C,2 C,2 C,2 | G,2 G,2 G,2 G,2 | G,2 G,2 F,2 F,2 | %89
w: my Re- dee-|mer. May the||||
 E,2 D,2 C,2 C,2 | F,4 E,4 | D,4 C,4 | E,4 F,4 | G,8 | E,8 | C,2 C,2 C,2 C,2 | D,2 D,2 E,2 F,2 | %97
w: |A- men,|A- men,|Hal- le-|lu-|jah,|Hal- le- lu- jah,|Hal- le- lu- jah,|
 G,8 | C,8 :|[M:4/4] z4 C,4 | F,4 G,4 | C,8 |] %102
w: A-|||||

